resources/icons/cisco/softphone.svg

<?xml version="1.0" encoding="UTF-8"?>
<svg xmlns="http://www.w3.org/2000/svg" xmlns:xlink="http://www.w3.org/1999/xlink" width="205pt" height="200pt" viewBox="0 0 205 200" version="1.1">
<defs>
<clipPath id="clip1">
  <path d="M 0 134 L 205 134 L 205 192.570312 L 0 192.570312 Z M 0 134 "/>
</clipPath>
</defs>
<g id="surface1">
<path style="fill-rule:nonzero;fill:rgb(1.176471%,41.176471%,59.607843%);fill-opacity:1;stroke-width:4;stroke-linecap:butt;stroke-linejoin:miter;stroke:rgb(100%,100%,100%);stroke-opacity:1;stroke-miterlimit:4;" d="M 46.678002 43.481821 L 256.248827 43.481821 L 256.248827 82.704327 L 46.678002 82.704327 Z M 46.678002 43.481821 " transform="matrix(0.740278,0,0,-0.742857,0,200)"/>
<path style=" stroke:none;fill-rule:nonzero;fill:rgb(1.176471%,41.176471%,59.607843%);fill-opacity:1;" d="M 215.953125 112.011719 L 215.953125 141.4375 L 189.695312 167.988281 L 189.695312 138.5625 L 34.4375 138.5625 "/>
<path style="fill:none;stroke-width:4;stroke-linecap:butt;stroke-linejoin:miter;stroke:rgb(100%,100%,100%);stroke-opacity:1;stroke-miterlimit:4;" d="M 291.719043 118.445763 L 291.719043 78.834135 L 256.248827 43.092698 L 256.248827 82.704327 L 46.5197 82.704327 M 48.160765 118.445763 L 291.719043 118.445763 " transform="matrix(0.740278,0,0,-0.742857,0,200)"/>
<path style="fill-rule:nonzero;fill:rgb(1.176471%,41.176471%,59.607843%);fill-opacity:1;stroke-width:4;stroke-linecap:butt;stroke-linejoin:miter;stroke:rgb(100%,100%,100%);stroke-opacity:1;stroke-miterlimit:4;" d="M 256.248827 82.704327 L 291.719043 118.445763 " transform="matrix(0.740278,0,0,-0.742857,0,200)"/>
<path style="fill-rule:nonzero;fill:rgb(1.176471%,41.176471%,59.607843%);fill-opacity:1;stroke-width:4;stroke-linecap:butt;stroke-linejoin:miter;stroke:rgb(100%,100%,100%);stroke-opacity:1;stroke-miterlimit:4;" d="M 46.5197 83.482572 L 255.96916 83.482572 L 255.96916 241.413762 L 46.5197 241.413762 Z M 46.5197 83.482572 " transform="matrix(0.740278,0,0,-0.742857,0,200)"/>
<path style=" stroke:none;fill-rule:nonzero;fill:rgb(1.176471%,41.176471%,59.607843%);fill-opacity:1;" d="M 189.496094 137.984375 L 215.953125 111.433594 L 215.953125 -5.882812 L 60.902344 -5.882812 L 34.4375 20.664062 L 189.496094 20.664062 L 189.496094 137.984375 "/>
<path style="fill:none;stroke-width:4;stroke-linecap:butt;stroke-linejoin:miter;stroke:rgb(100%,100%,100%);stroke-opacity:1;stroke-miterlimit:4;" d="M 255.979714 83.482572 L 291.719043 119.224008 L 291.719043 277.14994 L 82.269583 277.14994 L 46.5197 241.413762 L 255.979714 241.413762 Z M 255.979714 83.482572 " transform="matrix(0.740278,0,0,-0.742857,0,200)"/>
<path style="fill-rule:nonzero;fill:rgb(1.176471%,41.176471%,59.607843%);fill-opacity:1;stroke-width:4;stroke-linecap:butt;stroke-linejoin:miter;stroke:rgb(100%,100%,100%);stroke-opacity:1;stroke-miterlimit:4;" d="M 64.798311 101.760817 L 237.690549 101.760817 L 237.690549 223.135517 L 64.798311 223.135517 Z M 64.798311 101.760817 " transform="matrix(0.740278,0,0,-0.742857,0,200)"/>
<path style="fill-rule:nonzero;fill:rgb(1.176471%,41.176471%,59.607843%);fill-opacity:1;stroke-width:4;stroke-linecap:butt;stroke-linejoin:miter;stroke:rgb(100%,100%,100%);stroke-opacity:1;stroke-miterlimit:4;" d="M 255.979714 241.413762 L 291.719043 277.14994 " transform="matrix(0.740278,0,0,-0.742857,0,200)"/>
<path style=" stroke:none;fill-rule:nonzero;fill:rgb(1.176471%,41.176471%,59.607843%);fill-opacity:1;" d="M 182.03125 188.996094 L 182.03125 171.730469 L 3.582031 171.730469 L 23.890625 151.363281 L 202.332031 151.363281 L 202.332031 168.597656 L 182.03125 188.996094 "/>
<g clip-path="url(#clip1)" clip-rule="nonzero">
<path style="fill:none;stroke-width:4;stroke-linecap:butt;stroke-linejoin:miter;stroke:rgb(100%,100%,100%);stroke-opacity:1;stroke-miterlimit:4;" d="M 245.895872 14.812951 L 245.895872 38.055138 L 4.838766 38.055138 L 32.272514 65.472506 L 273.319067 65.472506 L 273.319067 42.272386 Z M 245.895872 14.812951 " transform="matrix(0.740278,0,0,-0.742857,0,200)"/>
</g>
<path style="fill-rule:nonzero;fill:rgb(1.176471%,41.176471%,59.607843%);fill-opacity:1;stroke-width:4;stroke-linecap:butt;stroke-linejoin:miter;stroke:rgb(100%,100%,100%);stroke-opacity:1;stroke-miterlimit:4;" d="M 4.838766 14.812951 L 245.890596 14.812951 L 245.890596 38.055138 L 4.838766 38.055138 Z M 4.838766 14.812951 " transform="matrix(0.740278,0,0,-0.742857,0,200)"/>
<path style="fill-rule:nonzero;fill:rgb(1.176471%,41.176471%,59.607843%);fill-opacity:1;stroke-width:4;stroke-linecap:butt;stroke-linejoin:miter;stroke:rgb(100%,100%,100%);stroke-opacity:1;stroke-miterlimit:4;" d="M 245.895872 38.055138 L 273.319067 65.472506 " transform="matrix(0.740278,0,0,-0.742857,0,200)"/>
<path style=" stroke:none;fill-rule:nonzero;fill:rgb(1.176471%,41.176471%,59.607843%);fill-opacity:1;" d="M 107.398438 61.34375 C 107.398438 61.34375 121.390625 53.136719 131.835938 55.691406 L 134.003906 62.539062 L 140.535156 74.609375 L 168.152344 59.515625 L 161.101562 46.515625 L 151.699219 42.832031 C 151.699219 42.832031 127.378906 41.234375 101.152344 54.351562 L 96.960938 56.621094 C 71.769531 71.617188 59.886719 92.972656 59.886719 92.972656 L 57.859375 102.898438 L 64.921875 115.898438 L 92.535156 100.839844 L 86 88.769531 L 81.429688 83.226562 C 84.984375 73.011719 99.421875 65.695312 99.421875 65.695312 L 107.398438 61.34375 "/>
<path style="fill:none;stroke-width:4;stroke-linecap:butt;stroke-linejoin:miter;stroke:rgb(100%,100%,100%);stroke-opacity:1;stroke-miterlimit:4;" d="M 145.078565 186.652644 C 145.078565 186.652644 163.979831 197.700571 178.089822 194.261569 L 181.01841 185.04357 L 189.841112 168.795072 L 227.147631 189.113582 L 217.623124 206.613582 L 204.922022 211.572266 C 204.922022 211.572266 172.069067 213.722957 136.641065 196.065204 L 130.979128 193.010066 C 96.949461 172.823017 80.897631 144.07527 80.897631 144.07527 L 78.159006 130.713642 L 87.699343 113.213642 L 125.000586 133.484826 L 116.172608 149.733323 L 109.998827 157.195012 C 114.800657 170.945763 134.303471 180.794772 134.303471 180.794772 Z M 145.078565 186.652644 " transform="matrix(0.740278,0,0,-0.742857,0,200)"/>
<path style="fill-rule:nonzero;fill:rgb(1.176471%,41.176471%,59.607843%);fill-opacity:1;stroke-width:4;stroke-linecap:butt;stroke-linejoin:miter;stroke:rgb(100%,100%,100%);stroke-opacity:1;stroke-miterlimit:4;" d="M 116.800539 150.364333 L 77.2303 128.83113 " transform="matrix(0.740278,0,0,-0.742857,0,200)"/>
<path style="fill-rule:nonzero;fill:rgb(1.176471%,41.176471%,59.607843%);fill-opacity:1;stroke-width:4;stroke-linecap:butt;stroke-linejoin:miter;stroke:rgb(100%,100%,100%);stroke-opacity:1;stroke-miterlimit:4;" d="M 218.240502 205.59345 L 178.712477 184.076022 " transform="matrix(0.740278,0,0,-0.742857,0,200)"/>
</g>
</svg>

<svg xmlns="http://www.w3.org/2000/svg" viewBox="0 0 36.25 35" height="35" width="36.25"><defs><clipPath id="a"><path d="M0 10v269h290V10H0z"/></clipPath></defs><g clip-path="url(#a)" transform="matrix(.13 0 0 -.13 0 35)"><path d="M46.68 43.484h209.57v39.22H46.68v-39.22z" fill="#036998"/><path d="M46.68 43.484h209.57v39.22H46.68v-39.22z" fill="none" stroke="#fff" stroke-width="4"/><path d="M291.719 118.445V78.832L256.25 43.094v39.61H46.52" fill="#036998"/><path d="M291.719 118.445V78.832L256.25 43.094v39.61H46.52M48.16 118.445H291.72" fill="none" stroke="#fff" stroke-width="4"/><path d="M256.25 82.703l35.469 35.742" fill="#036998"/><path d="M256.25 82.703l35.469 35.742" fill="none" stroke="#fff" stroke-width="4"/><path d="M46.52 83.484h209.449v157.93H46.519V83.484z" fill="#036998"/><path d="M46.52 83.484h209.449v157.93H46.519V83.484z" fill="none" stroke="#fff" stroke-width="4"/><path d="M255.98 83.484l35.739 35.739v157.929H82.269l-35.75-35.738H255.98V83.484" fill="#036998"/><path d="M255.98 83.484l35.739 35.739v157.929H82.269l-35.75-35.738H255.98V83.484z" fill="none" stroke="#fff" stroke-width="4"/><path d="M64.8 101.762h172.892v121.371H64.8V101.762z" fill="#036998"/><path d="M64.8 101.762h172.892v121.371H64.8V101.762z" fill="none" stroke="#fff" stroke-width="4"/><path d="M255.98 241.414l35.739 35.738" fill="#036998"/><path d="M255.98 241.414l35.739 35.738" fill="none" stroke="#fff" stroke-width="4"/><path d="M245.898 14.813v23.242H4.84l27.43 27.418h241.05v-23.2l-27.422-27.46" fill="#036998"/><path d="M245.898 14.813v23.242H4.84l27.43 27.418h241.05v-23.2l-27.422-27.46z" fill="none" stroke="#fff" stroke-width="4"/><path d="M4.84 14.813h241.05v23.242H4.84V14.812z" fill="#036998"/><path d="M4.84 14.813h241.05v23.242H4.84V14.812z" fill="none" stroke="#fff" stroke-width="4"/><path d="M245.898 38.055l27.422 27.418" fill="#036998"/><path d="M245.898 38.055l27.422 27.418" fill="none" stroke="#fff" stroke-width="4"/><path d="M145.078 186.652s18.902 11.051 33.012 7.61l2.93-9.219 8.82-16.25 37.308 20.32-9.527 17.5-12.699 4.961s-32.852 2.149-68.281-15.511l-5.661-3.051c-34.03-20.188-50.082-48.938-50.082-48.938l-2.738-13.359 9.54-17.5 37.3 20.269-8.828 16.25-6.172 7.461c4.801 13.75 24.301 23.598 24.301 23.598l10.777 5.859" fill="#036998"/><path d="M145.078 186.652s18.902 11.051 33.012 7.61l2.93-9.219 8.82-16.25 37.308 20.32-9.527 17.5-12.699 4.961s-32.852 2.149-68.281-15.511l-5.661-3.051c-34.03-20.188-50.082-48.938-50.082-48.938l-2.738-13.359 9.54-17.5 37.3 20.269-8.828 16.25-6.172 7.461c4.801 13.75 24.301 23.598 24.301 23.598l10.777 5.859z" fill="none" stroke="#fff" stroke-width="4"/><path d="M116.801 150.363l-39.57-21.531" fill="#036998"/><path d="M116.801 150.363l-39.57-21.531" fill="none" stroke="#fff" stroke-width="4"/><path d="M218.238 205.594l-39.527-21.52" fill="#036998"/><path d="M218.238 205.594l-39.527-21.52" fill="none" stroke="#fff" stroke-width="4"/></g></svg>
